X: 77
T:The Director
% Nottingham Music Database
S:Play A B A C, via Phil Rowe
M:6/8
K:A
"(E7)"cde ||"A"\
P:bA
f2e ^d2e|c3 Ace|"A"f2e ^d2e|"E"d3 -dcd|"E"g3 f3|
"E"g3 f3|"E"e2e e^d=d|"A"c3 Ace|"A"f2e ^d2e|c3 Ace|
"A"f2e ^d2e|"E"d3 -dcd|"E"g3 f3|"E"g3 f3|"E"e2e efg|"A"a3 -a3||
"A"\
P:bB
c3 B2c|E3 E3|"A"EFG AGF|"E"G3 -G3|"E"d3 c2d|"E"E3 E3|
"E"EFG AB=c|"A"cEF "E7"GAB|"A"c3 B2c|E3 E3|"A7"A2A ABc|
"D"d3 -d3|F^EF d2F|"A"E^DE c2A|"E"G2E EFG|"A"A3 ||
K:D
"D"\
P:bC
f3 e2f|A3 A3|"D"ABc dcB|"A"c3 -c3|"A"g3 f2g|"A"A3 A3|
"A"ABc de^e|"D"fAB "A7"cde|"D"f3 e2f|A3 A3|"D7"d2d def|
"G"g3 -g3|B^AB g2B|"D"A^GA f2d|"A"c2A ABc|"D"d3 ||<end>
<start>
